!!!OTL: K. Mutschekueh'chen von Halberstadt.
!!!COM: Volkslied
!!!OPR: 121. Buko von Halberstadt
!!!ARE: Europa, Mitteleuropa, Deutschland, Thueringen
!!!SCT: K0121B
!!!TXL: @@NDS
!!!YEM: Copyright 1995, estate of Helmut Schaffrath.
**kern	**text
*clefG2	*
*M2/4	*
*k[b-]	*
*F:	*
=1	=1
{8.cc	Mutſcheküh'chen
16b-	.
8a	.
8g	von
=2	=2
8f	Hal-
8f	-ber-
8c	-ſtadt,
8r}	.
=3	=3
{8.cc	bring
16b-	doch
8a	un-
8g	-ſerm
=4	=4
8f	Kindchen
8f	.
8c}	was!
{8c	Was
=5	=5
8f	ſoll
8g	ich
8a	ihm
8cc	denn
=6	=6
8ccL	brin-
8b-J	.
8g	-gen?
8r}	.
=7	=7
{8f	Ein
8g	Paar
8a	Schuh
8cc	mit
=8	=8
8ccL	Rin-
8b-J	.
8g	-gen,
8r}	.
=9	=9
{8.cc	ein
16b-	Paar
8a	Schuh
8f	mit
=10	=10
8b-	Gold
8dd	beſchlag'n,
4cc}	.
=11	=11
{8b-	die
8g	ſoll
8a	un-
8f	-ſer
=12	=12
8g	Kind-
8e	-lein
8f	trag'n.
8r}	.
==	==
!!!AGN: Kinder -, Wiegen - Lied
!!!ONB: ESAC (Essen Associative Code) Database: KINDER
!!!AMT: simple duple
!!!AIN: vox
!!!EED: Helmut Schaffrath
!!!EEV: 1.0
!!!GTL: I. Wiegenlieder.
!!@@COMMENT:"Mündlich aus Thüringen. Ebenso aus Halle: Erk J. 4, 55.
!!Der weitverbreitete, urſprünglich niederdeutſche Kinderreim von Buko ſoll ſich nach gewöhnlicher Annahme auf den Biſchof Burchard 
!!von Halberſtadt beʒiehen. Dieſer Biſchof, der im Jahr 1074 ſich mit den Sachſen gegen Kaiſer Heinrich auflehnte, war ein beſonderer Freund der Kinder, 
!!ſo daß er niemals von ſeinem Schloſſe (dem Petershof) ausging, ohne für die Kinder Geſchenke (Obſt, Schuhe, Geld rc. ) ſich nachtragen ʒu laſſen. Daher die Weiber Gelegenheit nahmen, ſeinen Namen in dieſem
!!weit verbreiteten Wiegenliede ʒu erhalten. (Joh. Winningſted, Chronic. Halberatad. Hdſchr. - Helmold, Chronik der Sladen. Kap. 27. Büſching, Wöchentl. Nachrichten J. 144. ) Gegen dieſe Annahme ſtellt E. Rochholʒ (Alem. Kinderl. 115) eine ſehr geſuchte Hypotheſe auf: 
!!Er erkennt in dem Buköken, Muhköken rc. von Halberſtadt jene rothe Kuh der Edda, die im letʒten Völkerkampfe über die Brücke des Himmels muß (vergl. Grimm, Myth. 1210). Denken wir lieber mit Goethe, 
!!der ʒum Wunderhorntexte ſagt: "Reimhafter Unſinn, ʒum Einſchläfern völlig ʒweckmäßig"."
!!@@END:
!!!URL-scan: https://archive.org/details/DeutschesKinderliedUndKinderspiel/page/32/mode/1up
!!!ENC: Anna Maria Matuszewska
!!!EEV: 2024/29/08
*-	*-
